**kern	**kern	**dynam
*part1	*part1	*part1
*staff2	*staff1	*
*I"Piano	*	*
*clefF4	*clefG2	*
*k[b-e-a-]	*k[b-e-a-]	*
=1	=1	=1
8DL	8r	.
8An	8fL	.
8d	8an 8dd 8ff	.
8AJ	8fJ	.
8FL	8r	.
8A	8fL	.
8d	8a 8dd 8ff	.
8AJ	8fJ	.
=	=	=
8GG 8G	8r	.
8GL	8enL	.
8c	8g 8cc 8een	.
8GJ	8eJ	.
8GG 8G	8r	.
8GL	8dL	.
8Bn	8f 8bn 8dd	.
8GJ	8dJ	.
=	=	=
*	*^	*
4C	8r	2reyy	.
.	8enL	.	p
4r	8g	.	.
.	8ccJ	.	.
4.C 4.G	8eenL	4.e	.
.	8dd	.	.
.	8cc	.	.
8C 8F#X	8anJ	8d#X	.
*	*v	*v	*
=	=	=
(((4C 4F#X	((4d#X 4an	.
8C))) 8G	8en)) 8g	.
8r	8r	.
2G 2Bn	8gL	.
.	8an	.
.	8dn	.
.	8gJ	.
=	=	=
((4G#X 4Bn	((4d 4f	.
8An)) 8c	8en))	.
8rF	8r	.
4F: 4c: 4d:	4an	f
4F: 4c: 4d:	4a 4dd 4ff	.
=	=	=
*	*^	*
4G: 4c: 4en:	4g	2ryy	.
4G: 4c: 4e:	4g 4cc 4een	.	.
2GG 2G	4.ee	2f 2bn	.
.	8dd	.	.
*	*v	*v	*
=	=	=
2C 2G	2en 2g 2cc	.
=:|!	=:|!	=:|!
*-	*-	*-
!!!system-decoration: {(s1,s2)}
